src/main/resources/icons/AllIcons/vcs/ShowUnversionedFiles.svg

<!-- Copyright 2000-2021 JetBrains s.r.o. Use of this source code is governed by the Apache 2.0 license that can be found in the LICENSE file. -->
<svg xmlns="http://www.w3.org/2000/svg" width="16" height="16" viewBox="0 0 16 16">
  <g fill="none" fill-rule="evenodd">
    <polygon fill="#6E6E6E" points="7 1 3 5 7 5"/>
    <path fill="#6E6E6E" d="M11.6457 13.849L11.6457 12.423C11.6457 11.924 11.6603303 11.6670225 11.8987 11.097 12.0576131 10.716985 12.1086131 10.5026517 12.0517 10.454L9.6187 8.423 10.2277 7.658C10.9627 6.735 11.9177 6.208 12.9997 6.063L12.9997 1 7.9997 1 7.9997 6 2.9997 6 2.9997 15 11.4287 15C11.4337 14.766 11.4737 14.541 11.5527 14.332 11.6187 14.159 11.6457 13.849 11.6457 13.849zM13.9219 14.3808C14.0919 14.5648 14.1779 14.7858 14.1779 15.0458 14.1779 15.3138 14.0919 15.5388 13.9219 15.7238 13.7509 15.9078 13.5429 15.9998 13.2959 15.9998 13.0479 15.9998 12.8419 15.9078 12.6749 15.7238 12.5079 15.5388 12.4249 15.3138 12.4249 15.0458 12.4249 14.7858 12.5099 14.5648 12.6809 14.3808 12.8509 14.1958 13.0559 14.1048 13.2959 14.1048 13.5429 14.1048 13.7509 14.1958 13.9219 14.3808"/>
    <path fill="#6E6E6E" d="M14.8789,7.2768 C15.2459,7.4608 15.5259,7.7078 15.7199,8.0178 C15.9129,8.3268 16.0099,8.6568 16.0099,9.0078 C16.0099,9.3348 15.9579,9.6128 15.8539,9.8428 C15.7489,10.0728 15.6239,10.2618 15.4769,10.4068 C15.3289,10.5548 15.1319,10.7248 14.8849,10.9158 C14.6599,11.0918 14.4829,11.2428 14.3509,11.3678 C14.2199,11.4928 14.1089,11.6488 14.0209,11.8328 C13.9319,12.0168 13.8879,12.2348 13.8879,12.4848 L13.8879,12.8488 L12.6459,12.8488 L12.6459,12.4228 C12.6459,12.0638 12.7009,11.7548 12.8139,11.4998 C12.9269,11.2448 13.0619,11.0358 13.2199,10.8718 C13.3789,10.7088 13.5809,10.5268 13.8289,10.3268 C14.1149,10.0918 14.3229,9.8938 14.4559,9.7308 C14.5869,9.5678 14.6529,9.3598 14.6529,9.1098 C14.6529,8.8078 14.5409,8.5708 14.3169,8.3998 C14.0919,8.2288 13.8019,8.1418 13.4459,8.1418 C13.1679,8.1418 12.8919,8.2138 12.6159,8.3558 C12.3419,8.4978 12.0969,8.7158 11.8799,9.0078 L11.0099,8.2808 C11.6909,7.4268 12.5449,6.9998 13.5739,6.9998 C14.0759,6.9998 14.5119,7.0918 14.8789,7.2768"/>
  </g>
</svg>

<svg xmlns="http://www.w3.org/2000/svg" width="16" height="16" viewBox="0 0 16 16"><rect id="frame" width="16" height="16" fill="none"/><g fill="#6E6E6E" fill-rule="evenodd"><path d="M7 1L3 5h4z"/><path d="M11.646 13.849v-1.426c0-.499.014-.756.253-1.326.159-.38.21-.594.153-.643L9.619 8.423l.609-.765c.735-.923 1.69-1.45 2.772-1.595V1H8v5H3v9h8.429c.005-.234.045-.459.124-.668.066-.173.093-.483.093-.483zm2.276.532c.17.184.256.405.256.665a.964.964 0 0 1-.256.678.821.821 0 0 1-.626.276.803.803 0 0 1-.621-.276.973.973 0 0 1-.25-.678.94.94 0 0 1 .256-.665.804.804 0 0 1 .615-.276c.247 0 .455.09.626.276"/><path d="M14.879 7.277c.367.184.647.43.84.74.194.31.29.64.29.99 0 .328-.051.606-.155.836-.105.23-.23.419-.377.564a6.305 6.305 0 0 1-.592.509 7.62 7.62 0 0 0-.534.452 1.485 1.485 0 0 0-.463 1.117v.364h-1.242v-.426c0-.36.055-.668.168-.923.113-.255.248-.464.406-.628.159-.163.36-.345.609-.545.286-.235.494-.433.627-.596a.962.962 0 0 0 .197-.621c0-.302-.112-.54-.336-.71-.225-.171-.515-.258-.871-.258-.278 0-.554.072-.83.214-.274.142-.52.36-.736.652l-.87-.727C11.69 7.427 12.545 7 13.574 7c.502 0 .938.092 1.305.277"/></g></svg>
